X: 1
T: Fynbo #3
O: Denmark
R: fynbo
Z: 2014 John Chambers <jc:trillian.mit.edu>
S: handwritten MS by John Chambers (1970s)
M: 2/4
L: 1/16
K: G
GA |:\
"G"B2B2 d3d | G2G2 B3B | "D7"c2cB A2BA |\
[1,3 "G"G2B2 d3-d :|[2,4 "G"G2G2 !fine!G4 :|
|:\
"D"A2A2 ~A^GA | FAdf a4 |\
[1,3 "A7"g2gf e2-e2 | "D"f2fe d4 :|\
[2,4 "A7"g2gf e2fe | "D"d2d2 "^(+7)"d4 :|
